public/dayone-logo.svg

<svg width="276" height="50" viewBox="0 0 276 50" fill="none" xmlns="http://www.w3.org/2000/svg">
<path d="M25.0705 1.49188C24.0217 1.49188 22.9857 1.55567 21.972 1.68324C21.5659 1.73427 21.163 1.79487 20.7633 1.86503C18.768 2.21585 16.8558 2.80268 15.0587 3.60001C14.5215 3.8392 13.9907 4.09754 13.4759 4.37181C13.1305 4.55679 12.7916 4.74815 12.4558 4.94589C11.7875 5.34455 11.1384 5.7751 10.5149 6.23117C10.3582 6.34599 10.2047 6.4608 10.0512 6.57881C4.38501 10.9545 0.746094 17.7413 0.746094 25.3637C0.746094 29.4843 1.81091 33.3593 3.68153 36.7431C3.77426 36.9122 3.87019 37.0812 3.96931 37.2471C5.13965 39.2467 6.59777 41.0646 8.28932 42.6465C8.43002 42.7773 8.57391 42.9081 8.71781 43.0356C9.14949 43.4215 9.59716 43.7915 10.0544 44.1455C10.2079 44.2635 10.3614 44.3815 10.5181 44.4931C11.1416 44.9524 11.7907 45.3798 12.459 45.7784C12.7948 45.9793 13.1337 46.1707 13.4791 46.3525C13.8244 46.5375 14.173 46.7129 14.5279 46.8787C17.7192 48.3873 21.2941 49.2324 25.0737 49.2324C38.507 49.2324 49.3982 38.5451 49.3982 25.3606C49.3982 12.176 38.5038 1.49188 25.0705 1.49188ZM25.0705 22.2893C26.8388 22.2893 28.2778 23.6702 28.2778 25.3669C28.2778 27.0636 26.8388 28.4446 25.0705 28.4446V22.2893ZM25.0705 32.9702C29.349 32.9702 32.8216 29.564 32.8216 25.3637C32.8216 21.1634 29.3522 17.7573 25.0705 17.7573V14.0449C31.4722 14.0449 36.6812 19.1223 36.6812 25.3669C36.6812 31.6116 31.4722 36.6889 25.0705 36.6889V32.9702ZM25.0705 44.71V41.2177C33.9887 41.2177 41.2218 34.1215 41.2218 25.3669C41.2218 16.6123 33.9919 9.51614 25.0705 9.51614V6.02068C35.9777 6.02068 44.8543 14.6987 44.8543 25.3637C44.8543 36.0319 35.9809 44.71 25.0705 44.71Z" fill="#1A1A1A"/>
<path d="M81.7584 36.5291V14.5943H87.2775C89.1829 14.5943 90.7762 14.8706 92.0574 15.423C93.3714 15.9429 94.4227 16.7066 95.2111 17.7139C95.9995 18.7213 96.558 19.9399 96.8865 21.3697C97.2479 22.7671 97.4286 24.3431 97.4286 26.0979C97.4286 28.0152 97.1822 29.64 96.6894 30.9723C96.1967 32.3046 95.5396 33.3933 94.7184 34.2381C93.8971 35.0505 92.9608 35.6355 91.9095 35.9929C90.8583 36.3504 89.7742 36.5291 88.6572 36.5291H81.7584ZM74.0219 8.16014V42.9633H89.1993C91.8931 42.9633 94.2256 42.5246 96.1967 41.6472C98.2006 40.7373 99.8596 39.5025 101.174 37.9427C102.521 36.3829 103.523 34.5306 104.18 32.3859C104.837 30.2411 105.165 27.9014 105.165 25.3667C105.165 22.4746 104.754 19.9562 103.933 17.8114C103.145 15.6667 102.028 13.8794 100.582 12.4496C99.1697 11.0198 97.4779 9.94742 95.5068 9.2325C93.5685 8.51759 91.466 8.16014 89.1993 8.16014H74.0219Z" fill="#1A1A1A"/>
<path d="M119.417 29.51L123.999 16.7391H124.098L128.533 29.51H119.417ZM120.156 8.16014L106.851 42.9633H114.637L117.396 35.213H130.553L133.214 42.9633H141.246L128.089 8.16014H120.156Z" fill="#1A1A1A"/>
<path d="M149.739 29.4125V42.9633H157.476V29.6075L170.534 8.16014H161.911L153.731 21.9059L145.502 8.16014H136.829L149.739 29.4125Z" fill="#1A1A1A"/>
<path d="M179.7 25.708C179.7 24.1806 179.864 22.7021 180.192 21.2723C180.554 19.8424 181.112 18.5751 181.868 17.4702C182.623 16.3329 183.609 15.4392 184.824 14.7893C186.04 14.1069 187.518 13.7657 189.259 13.7657C191.001 13.7657 192.479 14.1069 193.694 14.7893C194.91 15.4392 195.895 16.3329 196.651 17.4702C197.407 18.5751 197.949 19.8424 198.277 21.2723C198.639 22.7021 198.819 24.1806 198.819 25.708C198.819 27.1703 198.639 28.6001 198.277 29.9974C197.949 31.3623 197.407 32.5971 196.651 33.702C195.895 34.8068 194.91 35.7005 193.694 36.3829C192.479 37.0328 191.001 37.3578 189.259 37.3578C187.518 37.3578 186.04 37.0328 184.824 36.3829C183.609 35.7005 182.623 34.8068 181.868 33.702C181.112 32.5971 180.554 31.3623 180.192 29.9974C179.864 28.6001 179.7 27.1703 179.7 25.708ZM171.963 25.708C171.963 28.2426 172.357 30.6148 173.146 32.8246C173.934 35.0018 175.068 36.9028 176.546 38.5276C178.024 40.1524 179.831 41.436 181.966 42.3784C184.135 43.2883 186.566 43.7432 189.259 43.7432C191.986 43.7432 194.417 43.2883 196.552 42.3784C198.688 41.436 200.495 40.1524 201.973 38.5276C203.451 36.9028 204.585 35.0018 205.373 32.8246C206.162 30.6148 206.556 28.2426 206.556 25.708C206.556 23.1083 206.162 20.7036 205.373 18.4939C204.585 16.2516 203.451 14.3019 201.973 12.6446C200.495 10.9873 198.688 9.68745 196.552 8.74506C194.417 7.80268 191.986 7.33149 189.259 7.33149C186.566 7.33149 184.135 7.80268 181.966 8.74506C179.831 9.68745 178.024 10.9873 176.546 12.6446C175.068 14.3019 173.934 16.2516 173.146 18.4939C172.357 20.7036 171.963 23.1083 171.963 25.708Z" fill="#1A1A1A"/>
<path d="M211.844 8.16014V42.9633H219.088V19.6637H219.187L233.822 42.9633H241.558V8.16014H234.315V31.5085H234.216L219.531 8.16014H211.844Z" fill="#1A1A1A"/>
<path d="M248.369 8.16014V42.9633H275.077V36.5291H256.106V27.9989H273.155V22.0522H256.106V14.5943H274.683V8.16014H248.369Z" fill="#1A1A1A"/>
</svg>

<svg xmlns="http://www.w3.org/2000/svg" width="276" height="50" fill="none"><path fill="#1A1A1A" d="M25.07 1.492a24.831 24.831 0 0 0-4.307.373 24.531 24.531 0 0 0-8.307 3.08A24.894 24.894 0 0 0 10.05 6.58C4.385 10.954.746 17.74.746 25.364A23.44 23.44 0 0 0 3.97 37.247a23.988 23.988 0 0 0 6.085 6.898c.154.118.307.236.464.348a23.989 23.989 0 0 0 2.961 1.86 24.609 24.609 0 0 0 11.595 2.88c13.433 0 24.324-10.688 24.324-23.872 0-13.185-10.894-23.87-24.328-23.87Zm0 20.797c1.769 0 3.208 1.381 3.208 3.078 0 1.697-1.44 3.078-3.207 3.078v-6.156Zm0 10.681c4.279 0 7.752-3.406 7.752-7.606 0-4.2-3.47-7.607-7.752-7.607v-3.712c6.402 0 11.611 5.077 11.611 11.322 0 6.245-5.209 11.322-11.61 11.322V32.97Zm0 11.74v-3.492c8.919 0 16.152-7.097 16.152-15.851 0-8.755-7.23-15.85-16.152-15.85V6.02c10.908 0 19.784 8.678 19.784 19.343 0 10.668-8.873 19.346-19.784 19.346Zm56.688-8.18V14.593h5.52c1.905 0 3.498.277 4.78.829 1.313.52 2.365 1.284 3.153 2.29.788 1.008 1.347 2.227 1.675 3.657.362 1.397.543 2.973.543 4.728 0 1.917-.247 3.542-.74 4.874-.492 1.333-1.15 2.421-1.97 3.266a7.296 7.296 0 0 1-2.81 1.755 10.033 10.033 0 0 1-3.252.536h-6.899ZM74.022 8.16v34.803h15.177c2.694 0 5.027-.438 6.998-1.316 2.004-.91 3.663-2.145 4.977-3.704 1.347-1.56 2.349-3.412 3.006-5.557.657-2.145.985-4.485.985-7.02 0-2.891-.411-5.41-1.232-7.555-.788-2.144-1.905-3.932-3.351-5.361-1.412-1.43-3.104-2.503-5.075-3.217-1.939-.715-4.041-1.073-6.308-1.073H74.022Zm45.395 21.35 4.582-12.77h.099l4.435 12.77h-9.116Zm.739-21.35-13.305 34.803h7.786l2.759-7.75h13.157l2.661 7.75h8.032L128.089 8.16h-7.933Zm29.583 21.253v13.55h7.737V29.608L170.534 8.16h-8.623l-8.18 13.746-8.229-13.746h-8.673l12.91 21.253Zm29.961-3.705c0-1.527.164-3.006.492-4.436.362-1.43.92-2.697 1.676-3.802a8.048 8.048 0 0 1 2.956-2.68c1.216-.683 2.694-1.024 4.435-1.024 1.742 0 3.22.34 4.435 1.023a8.05 8.05 0 0 1 2.957 2.681c.756 1.105 1.298 2.372 1.626 3.802.362 1.43.542 2.909.542 4.436 0 1.462-.18 2.892-.542 4.29a11.08 11.08 0 0 1-1.626 3.704 8.655 8.655 0 0 1-2.957 2.68c-1.215.65-2.693.976-4.435.976-1.741 0-3.219-.325-4.435-.975a8.651 8.651 0 0 1-2.956-2.681 11.908 11.908 0 0 1-1.676-3.705 18.707 18.707 0 0 1-.492-4.289Zm-7.737 0c0 2.535.394 4.907 1.183 7.117.788 2.177 1.922 4.078 3.4 5.703 1.478 1.624 3.285 2.908 5.42 3.85 2.169.91 4.6 1.365 7.293 1.365 2.727 0 5.158-.455 7.293-1.365 2.136-.942 3.943-2.226 5.421-3.85 1.478-1.625 2.612-3.526 3.4-5.703.789-2.21 1.183-4.582 1.183-7.117 0-2.6-.394-5.004-1.183-7.214-.788-2.242-1.922-4.192-3.4-5.85-1.478-1.657-3.285-2.957-5.421-3.899-2.135-.942-4.566-1.414-7.293-1.414-2.693 0-5.124.472-7.293 1.414-2.135.942-3.942 2.242-5.42 3.9-1.478 1.657-2.612 3.607-3.4 5.849-.789 2.21-1.183 4.614-1.183 7.214ZM211.844 8.16v34.803h7.244v-23.3h.099l14.635 23.3h7.736V8.16h-7.243v23.35h-.099L219.531 8.16h-7.687Zm36.525 0v34.803h26.708V36.53h-18.971V28h17.049v-5.947h-17.049v-7.458h18.577V8.16h-26.314Z"/></svg>
